X: 5
T: The Rambling Pitchfork
R: jig
M: 6/8
L: 1/8
K: Dmix
AG|~F3 AFF | cFF AFD | ~G3 ABc | ded ^cAG |FEF AFF | cFF AFE |DGG BAG | AFD D2E |
FDD ADD | cBc AFD |GFG ABc | fed cAG | ~F3 AFF | cFF AFD | ~G3 BAG | AFD DED |
|d2e fed | e^cA ABA | d^cd efg | faf gfe | d2e fdd | e^cA ABA | ~G3 BAG | AFD D2A |
d2e fdd | e^cA ABA | d^cd fed | faf g2g | a2f g2e | fed cAF | ~G3 BAG | AFD D2E |


Tune 89	Setting 89

